; generated by Slic3r 0.9.10b on 2013-11-19 at 16:16:06

; layer_height = 0.22
; perimeters = 3
; top_solid_layers = 1
; bottom_solid_layers = 1
; fill_density = 0
; perimeter_speed = 30
; infill_speed = 40
; travel_speed = 130
; nozzle_diameter = 0.35
; filament_diameter = 3
; extrusion_multiplier = 0.9
; perimeters extrusion width = 0.46mm
; infill extrusion width = 0.46mm
; solid infill extrusion width = 0.46mm
; top infill extrusion width = 0.46mm
; support material extrusion width = 0.46mm

G21 ; set units to millimeters
M104 S185 ; turn on temperature
G92 X0 Y0 Z0 ; manual homing
G90 ; use absolute coordinates
G92 E0
M82 ; use absolute distances for extrusion
G1 F1800.000 E-1.00000
G92 E0
G1 Z0.175 F7800.000
M104 S185
G1 X4.610 Y7.882
G1 F1800.000 E1.00000
G1 X1.660 Y8.982 F540.000 E1.03068
G1 X1.430 Y9.042 E1.03300
G1 X1.200 Y9.062 E1.03524
G1 X-1.200 Y9.062 E1.05863
G1 X-1.430 Y9.042 E1.06088
G1 X-1.660 Y8.982 E1.06320
G1 X-4.630 Y7.882 E1.09406
G1 X-4.820 Y7.792 E1.09611
G1 X-6.460 Y6.492 E1.11650
G1 X-7.470 Y5.302 E1.13171
G1 X-7.610 Y5.102 E1.13409
G1 X-8.330 Y3.822 E1.14840
G1 X-8.750 Y2.722 E1.15987
G1 X-8.800 Y2.532 E1.16179
G1 X-9.070 Y1.262 E1.17444
G1 X-9.160 Y0.162 E1.18519
G1 X-9.090 Y-1.128 E1.19778
G1 X-9.060 Y-1.318 E1.19966
G1 X-8.780 Y-2.598 E1.21242
G1 X-8.380 Y-3.698 E1.22383
G1 X-8.300 Y-3.888 E1.22584
G1 X-7.690 Y-4.988 E1.23809
G1 X-6.600 Y-6.368 E1.25523
G1 X-5.030 Y-7.668 E1.27509
G1 X-2.320 Y-8.848 E1.30389
G1 X-2.070 Y-8.928 E1.30645
G1 X-1.800 Y-8.958 E1.30910
G1 X1.790 Y-8.958 E1.34408
G1 X2.060 Y-8.928 E1.34673
G1 X2.310 Y-8.848 E1.34929
G1 X5.010 Y-7.668 E1.37800
G1 X6.590 Y-6.368 E1.39794
G1 X7.680 Y-4.988 E1.41507
G1 X8.290 Y-3.888 E1.42733
G1 X8.370 Y-3.708 E1.42925
G1 X8.840 Y-2.408 E1.44272
G1 X9.060 Y-1.308 E1.45365
G1 X9.150 Y0.152 E1.46790
G1 X9.070 Y1.252 E1.47865
G1 X8.790 Y2.542 E1.49151
G1 X8.740 Y2.722 E1.49333
G1 X8.320 Y3.822 E1.50481
G1 X7.580 Y5.112 E1.51930
G1 X7.460 Y5.292 E1.52141
G1 X6.460 Y6.492 E1.53663
G1 X4.960 Y7.682 E1.55529
G1 X4.669 Y7.852 E1.55858
G1 X4.460 Y7.472 F7800.000
G1 X1.510 Y8.572 F540.000 E1.58925
G1 X1.360 Y8.612 E1.59077
G1 X-1.350 Y8.612 E1.61717
G1 X-1.500 Y8.572 E1.61869
G1 X-4.600 Y7.412 E1.65094
G1 X-6.150 Y6.182 E1.67022
G1 X-7.190 Y4.952 E1.68592
G1 X-7.920 Y3.662 E1.70036
G1 X-8.340 Y2.562 E1.71183
G1 X-8.370 Y2.442 E1.71304
G1 X-8.630 Y1.222 E1.72519
G1 X-8.720 Y0.122 E1.73595
G1 X-8.640 Y-1.228 E1.74913
G1 X-8.410 Y-2.328 E1.76008
G1 X-7.970 Y-3.548 E1.77271
G1 X-7.220 Y-4.898 E1.78776
G1 X-6.340 Y-5.998 E1.80149
G1 X-6.220 Y-6.118 E1.80314
G1 X-4.800 Y-7.288 E1.82107
G1 X-1.980 Y-8.508 E1.85101
G1 X1.970 Y-8.508 E1.88950
G1 X4.780 Y-7.298 E1.91932
G1 X6.210 Y-6.118 E1.93738
G1 X6.330 Y-5.998 E1.93903
G1 X7.210 Y-4.898 E1.95276
G1 X7.960 Y-3.558 E1.96772
G1 X8.410 Y-2.318 E1.98058
G1 X8.630 Y-1.218 E1.99151
G1 X8.710 Y-0.008 E2.00333
G1 X8.610 Y1.342 E2.01652
G1 X8.330 Y2.562 E2.02871
G1 X7.910 Y3.662 E2.04019
G1 X7.210 Y4.892 E2.05398
G1 X6.150 Y6.182 E2.07025
G1 X4.690 Y7.342 E2.08842
G1 X4.519 Y7.442 E2.09035
G1 X4.300 Y7.062 F7800.000
G1 X1.280 Y8.182 F540.000 E2.12174
G1 X-1.280 Y8.182 E2.14669
G1 X-4.390 Y7.032 E2.17900
G1 X-5.850 Y5.862 E2.19723
G1 X-6.850 Y4.672 E2.21237
G1 X-7.510 Y3.512 E2.22538
G1 X-7.950 Y2.342 E2.23756
G1 X-8.200 Y1.192 E2.24903
G1 X-8.290 Y0.092 E2.25978
G1 X-8.210 Y-1.138 E2.27179
G1 X-7.980 Y-2.238 E2.28274
G1 X-7.560 Y-3.398 E2.29476
G1 X-6.920 Y-4.558 E2.30767
G1 X-5.970 Y-5.758 E2.32259
G1 X-4.620 Y-6.888 E2.33974
G1 X-1.890 Y-8.078 E2.36876
G1 X1.880 Y-8.078 E2.40550
G1 X4.600 Y-6.888 E2.43443
G1 X5.960 Y-5.758 E2.45166
G1 X6.910 Y-4.558 E2.46657
G1 X7.550 Y-3.398 E2.47948
G1 X7.980 Y-2.238 E2.49154
G1 X8.210 Y-1.078 E2.50306
G1 X8.280 Y0.022 E2.51380
G1 X8.190 Y1.252 E2.52582
G1 X7.940 Y2.352 E2.53681
G1 X7.500 Y3.512 E2.54890
G1 X6.830 Y4.672 E2.56195
G1 X5.850 Y5.862 E2.57698
G1 X4.359 Y7.032 E2.59545
G1 X4.154 Y6.653 F7800.000
G1 X-4.162 Y6.653 F720.000 E2.69732
G1 X-3.358 Y5.554 E2.71401
G1 X-5.539 Y5.554 E2.74073
G1 X-6.461 Y4.454 E2.75830
G1 X-3.968 Y4.454 E2.78884
G1 X-3.148 Y4.454 F7800.000
G1 X-2.201 Y4.454 F720.000 E2.80044
G1 X-1.534 Y4.454 F7800.000
G1 X-0.648 Y4.454 F720.000 E2.81129
G1 X0.161 Y4.454 F7800.000
G1 X1.945 Y4.454 F720.000 E2.83315
G1 X2.066 Y5.554 E2.84670
G1 X5.544 Y5.554 E2.88930
G1 X4.719 Y4.454 E2.90613
G1 X6.456 Y4.454 E2.92741
G1 X7.095 Y3.355 E2.94299
G1 X2.704 Y3.355 E2.99677
G1 X3.419 Y2.255 F7800.000
G1 X4.592 Y2.255 F720.000 E3.01114
G1 X4.832 Y1.155 E3.02493
G1 X7.761 Y1.155 E3.06080
G1 X7.848 Y0.056 E3.07431
G1 X6.322 Y0.056 E3.09301
G1 X6.406 Y-1.044 E3.10652
G1 X7.774 Y-1.044 E3.12329
G1 X7.551 Y-2.143 E3.13703
G1 X5.430 Y-2.143 E3.16302
G1 X4.613 Y-2.143 F7800.000
G1 X3.882 Y-2.143 F720.000 E3.17198
G1 X3.923 Y-3.243 E3.18546
G1 X4.953 Y-3.243 E3.19807
G1 X5.630 Y-3.243 F7800.000
G1 X7.143 Y-3.243 F720.000 E3.21661
G1 X6.538 Y-4.342 E3.23199
G1 X3.964 Y-4.342 E3.26352
G1 X3.165 Y-4.342 F7800.000
G1 X2.250 Y-4.342 F720.000 E3.27472
G1 X1.610 Y-4.342 F7800.000
G1 X0.778 Y-4.342 F720.000 E3.28492
G1 X0.032 Y-4.342 F7800.000
G1 X-1.528 Y-4.342 F720.000 E3.30403
G1 X-1.872 Y-5.442 E3.31815
G1 X-5.654 Y-5.442 E3.36448
G1 X-4.824 Y-4.342 E3.38135
G1 X-6.538 Y-4.342 E3.40235
G1 X-7.143 Y-3.243 E3.41773
G1 X-3.296 Y-3.243 E3.46486
G1 X-3.495 Y-2.143 E3.47855
G1 X-4.877 Y-2.143 E3.49547
G1 X-4.983 Y-1.044 E3.50901
G1 X-7.774 Y-1.044 E3.54320
G1 X-7.844 Y0.056 E3.55669
G1 X-6.473 Y0.056 E3.57348
G1 X-6.389 Y1.155 E3.58699
G1 X-7.759 Y1.155 E3.60377
G1 X-7.513 Y2.255 E3.61757
G1 X-5.489 Y2.255 E3.64237
G1 X-4.648 Y2.255 F7800.000
G1 X-3.886 Y2.255 F720.000 E3.65170
G1 X-3.922 Y1.155 E3.66518
G1 X-4.309 Y1.155 E3.66991
G1 X-4.908 Y1.155 F7800.000
G1 X-6.224 Y1.155 F720.000 E3.68604
G1 X-5.204 Y0.056 E3.70441
G1 X-4.326 Y0.056 E3.71516
G1 X-4.184 Y-1.044 E3.72875
G1 X-3.968 Y-1.044 E3.73139
G1 X-6.129 Y-2.143 E3.76110
G1 X-7.545 Y-2.143 E3.77845
G1 X-6.129 Y-2.143 F7800.000 E3.36983
G1 X-4.302 Y-1.214 E2.77845
G92 E0
G1 X-10.007 Y-4.291
G1 X-7.761 Y-7.636
G1 X-4.144 Y-10.069
G1 X-4.336 Y-6.541
G1 F1800.000 E1.00000
G1 X4.328 Y-6.541 F720.000 E1.10614
G1 X3.550 Y-5.442 E1.12265
G1 X5.654 Y-5.442 E1.14842
G1 X3.550 Y-5.442 F7800.000 E0.54144
G1 X4.328 Y-6.541 E0.15285
G1 X4.313 Y-6.541 E0.14842
G92 E0
G1 X2.999 Y-5.442
G1 F1800.000 E1.00000
G1 X1.770 Y-5.442 F720.000 E1.01505
G1 X0.861 Y-5.442 F7800.000
G1 X-0.500 Y-5.442 F720.000 E1.03172
G1 X0.861 Y-5.442 F7800.000 E0.03172
G92 E0
G1 X-1.792 Y-7.641
G1 F1800.000 E1.00000
G1 X1.792 Y-7.641 F720.000 E1.04391
G1 X-1.675 Y-7.641 F7800.000 E0.04391
G92 E0
G1 X2.730 Y-3.243
G1 F1800.000 E1.00000
G1 X3.331 Y-3.243 F720.000 E1.00736
G1 X2.730 Y-3.243 F7800.000 E0.00736
G92 E0
G1 X3.954 Y-1.044
G1 F1800.000 E1.00000
G1 X4.274 Y-1.044 F720.000 E1.00393
G1 X4.848 Y-1.044 F7800.000
G1 X6.120 Y-1.044 F720.000 E1.01951
G1 X5.100 Y0.056 E1.03788
G1 X4.267 Y0.056 E1.04808
G1 X5.100 Y0.056 F7800.000 E0.80783
G1 X6.120 Y-1.044 E0.37514
G1 X4.987 Y-1.044 E0.04808
G92 E0
G1 X6.094 Y2.255
G1 F1800.000 E1.00000
G1 X7.513 Y2.255 F720.000 E1.01738
G1 X6.094 Y2.255 F7800.000 E0.01738
G92 E0
G1 X0.630 Y5.554
G1 F1800.000 E1.00000
G1 X-0.785 Y5.554 F720.000 E1.01732
G1 X-1.722 Y5.554 F7800.000
G1 X-2.982 Y5.554 F720.000 E1.03277
G1 X-1.722 Y5.554 F7800.000 E0.03277
G92 E0
G1 X-2.681 Y3.355
G1 F1800.000 E1.00000
G1 X-3.314 Y3.355 F720.000 E1.00775
G1 X-3.927 Y3.355 F7800.000
G1 X-4.987 Y3.355 F720.000 E1.02073
G1 X-5.565 Y3.355 F7800.000
G1 X-7.090 Y3.355 F720.000 E1.03942
G1 X-5.565 Y3.355 F7800.000 E0.03942
G92 E0
G1 X-1.192 Y7.753
G1 F1800.000 E1.00000
G1 X1.209 Y7.753 F720.000 E1.02942
G1 X-1.192 Y7.753 F7800.000 E0.02942
G92 E0
G1 Z0.395
M104 S185
G1 X-0.913 Y6.656
G1 F1800.000 E1.00000
G1 X-1.527 Y6.546 F1260.000 E1.00765
G1 X-2.967 Y3.247 E1.05174
G1 X-3.103 Y3.286 E1.05347
G1 X-2.665 Y6.192 E1.08946
G1 X-3.493 Y5.740 E1.10101
G1 X-4.216 Y5.235 E1.11182
G1 X-4.082 Y1.638 E1.15591
G1 X-4.221 Y1.615 E1.15764
G1 X-5.087 Y4.422 E1.19363
G1 X-5.637 Y3.656 E1.20519
G1 X-6.070 Y2.887 E1.21600
G1 X-4.388 Y-0.295 E1.26008
G1 X-4.504 Y-0.377 E1.26182
G1 X-6.502 Y1.777 E1.29781
G1 X-6.665 Y0.848 E1.30936
G1 X-6.722 Y-0.033 E1.32017
G1 X-3.826 Y-2.170 E1.36425
G1 X-3.895 Y-2.294 E1.36599
G1 X-6.629 Y-1.220 E1.40198
G1 X-6.373 Y-2.128 E1.41353
G1 X-6.042 Y-2.946 E1.42434
G1 X-2.506 Y-3.615 E1.46843
G1 X-2.514 Y-3.756 E1.47016
G1 X-5.443 Y-3.976 E1.50615
G1 X-4.819 Y-4.682 E1.51771
G1 X-4.165 Y-5.276 E1.52851
G1 X-0.689 Y-4.344 E1.57260
G1 X-0.635 Y-4.475 E1.57434
G1 X-3.179 Y-5.944 E1.61033
G1 X-2.310 Y-6.309 E1.62188
G1 X-1.464 Y-6.560 E1.63269
G1 X1.264 Y-4.213 E1.67677
G1 X1.370 Y-4.307 E1.67851
G1 X-0.285 Y-6.735 E1.71450
G1 X0.399 Y-6.707 E1.72289
G1 X0.913 Y-6.656 E1.72922
G1 X1.527 Y-6.546 E1.73686
G1 X2.967 Y-3.247 E1.78095
G1 X3.103 Y-3.286 E1.78269
G1 X2.665 Y-6.192 E1.81868
G1 X3.493 Y-5.740 E1.83023
G1 X4.216 Y-5.235 E1.84104
G1 X4.082 Y-1.638 E1.88512
G1 X4.221 Y-1.615 E1.88686
G1 X5.087 Y-4.422 E1.92285
G1 X5.637 Y-3.656 E1.93440
G1 X6.070 Y-2.887 E1.94521
G1 X4.388 Y0.295 E1.98930
G1 X4.504 Y0.377 E1.99103
G1 X6.502 Y-1.777 E2.02702
G1 X6.665 Y-0.848 E2.03857
G1 X6.722 Y0.033 E2.04938
G1 X3.826 Y2.170 E2.09347
G1 X3.895 Y2.294 E2.09521
G1 X6.629 Y1.220 E2.13120
G1 X6.373 Y2.128 E2.14275
G1 X6.042 Y2.946 E2.15356
G1 X2.506 Y3.615 E2.19764
G1 X2.514 Y3.756 E2.19938
G1 X5.443 Y3.976 E2.23537
G1 X4.819 Y4.682 E2.24692
G1 X4.165 Y5.276 E2.25773
G1 X0.689 Y4.344 E2.30182
G1 X0.635 Y4.475 E2.30355
G1 X3.179 Y5.944 E2.33954
G1 X2.310 Y6.309 E2.35109
G1 X1.464 Y6.560 E2.36190
G1 X-1.264 Y4.213 E2.40599
G1 X-1.370 Y4.307 E2.40772
G1 X0.285 Y6.735 E2.44371
G1 X-0.399 Y6.707 E2.45210
G1 X-0.848 Y6.664 E2.45763
G1 X-1.072 Y6.249 F7800.000
G1 X-1.393 Y7.503
G1 X-1.698 Y7.440 F1260.000 E2.46144
G1 X-2.299 Y7.277 E2.46907
G1 X-2.884 Y7.065 E2.47669
G1 X-3.451 Y6.807 E2.48432
G1 X-3.994 Y6.503 E2.49194
G1 X-4.256 Y6.334 E2.49576
G1 X-4.758 Y5.966 E2.50338
G1 X-4.997 Y5.767 E2.50720
G1 X-5.451 Y5.341 E2.51482
G1 X-5.664 Y5.114 E2.51864
G1 X-6.062 Y4.635 E2.52626
G1 X-6.420 Y4.126 E2.53389
G1 X-6.735 Y3.589 E2.54152
G1 X-7.005 Y3.028 E2.54914
G1 X-7.228 Y2.447 E2.55677
G1 X-7.404 Y1.850 E2.56440
G1 X-7.473 Y1.546 E2.56821
G1 X-7.574 Y0.932 E2.57584
G1 X-7.625 Y0.311 E2.58346
G1 X-7.631 Y-0.000 E2.58728
G1 X-7.625 Y-0.311 E2.59109
G1 X-7.574 Y-0.932 E2.59872
G1 X-7.473 Y-1.546 E2.60634
G1 X-7.322 Y-2.150 E2.61397
G1 X-7.228 Y-2.447 E2.61778
G1 X-7.005 Y-3.028 E2.62541
G1 X-6.735 Y-3.589 E2.63303
G1 X-6.420 Y-4.126 E2.64066
G1 X-6.246 Y-4.384 E2.64447
G1 X-5.868 Y-4.879 E2.65210
G1 X-5.664 Y-5.114 E2.65591
G1 X-5.229 Y-5.559 E2.66354
G1 X-4.758 Y-5.966 E2.67117
G1 X-4.256 Y-6.334 E2.67879
G1 X-3.725 Y-6.660 E2.68642
G1 X-3.451 Y-6.807 E2.69023
G1 X-2.884 Y-7.065 E2.69786
G1 X-2.299 Y-7.277 E2.70548
G1 X-2.000 Y-7.365 E2.70930
G1 X-1.393 Y-7.503 E2.71692
G1 X-0.777 Y-7.592 E2.72455
G1 X-0.156 Y-7.630 E2.73218
G1 X0.467 Y-7.617 E2.73980
G1 X1.086 Y-7.554 E2.74743
G1 X1.393 Y-7.503 E2.75124
G1 X2.000 Y-7.364 E2.75887
G1 X2.594 Y-7.177 E2.76649
G1 X3.170 Y-6.942 E2.77412
G1 X3.451 Y-6.807 E2.77793
G1 X3.994 Y-6.503 E2.78556
G1 X4.256 Y-6.334 E2.78937
G1 X4.758 Y-5.966 E2.79700
G1 X5.229 Y-5.559 E2.80463
G1 X5.451 Y-5.341 E2.80844
G1 X5.868 Y-4.879 E2.81607
G1 X6.246 Y-4.384 E2.82369
G1 X6.583 Y-3.861 E2.83132
G1 X6.735 Y-3.589 E2.83513
G1 X7.005 Y-3.028 E2.84276
G1 X7.228 Y-2.447 E2.85038
G1 X7.404 Y-1.850 E2.85801
G1 X7.530 Y-1.240 E2.86564
G1 X7.574 Y-0.932 E2.86945
G1 X7.625 Y-0.311 E2.87708
G1 X7.631 Y-0.000 E2.88089
G1 X7.606 Y0.622 E2.88852
G1 X7.530 Y1.240 E2.89614
G1 X7.404 Y1.850 E2.90377
G1 X7.322 Y2.150 E2.90758
G1 X7.123 Y2.740 E2.91521
G1 X6.876 Y3.311 E2.92284
G1 X6.583 Y3.860 E2.93046
G1 X6.420 Y4.126 E2.93428
G1 X6.062 Y4.635 E2.94190
G1 X5.664 Y5.114 E2.94953
G1 X5.229 Y5.559 E2.95715
G1 X4.997 Y5.767 E2.96097
G1 X4.511 Y6.155 E2.96859
G1 X3.994 Y6.503 E2.97622
G1 X3.725 Y6.660 E2.98003
G1 X3.170 Y6.942 E2.98766
G1 X2.884 Y7.065 E2.99147
G1 X2.299 Y7.277 E2.99910
G1 X1.698 Y7.440 E3.00673
G1 X1.086 Y7.554 E3.01435
G1 X0.467 Y7.617 E3.02198
G1 X0.156 Y7.630 E3.02579
G1 X-0.467 Y7.617 E3.03342
G1 X-1.329 Y7.514 E3.04405
G1 X-1.499 Y7.210 F7800.000
G1 X-1.698 Y7.440 E2.95636
G1 X-2.299 Y7.277 E2.77680
G1 X-2.884 Y7.065 E2.59721
G1 X-3.451 Y6.807 E2.41763
G1 X-3.994 Y6.503 E2.23806
G1 X-4.256 Y6.334 E2.14825
G1 X-4.547 Y6.121 E2.04405
G92 E0
G1 X-2.490 Y6.905
G1 X0.891 Y7.123
G1 X-0.048 Y5.746
G1 X0.513 Y4.348
G1 F1800.000 E1.00000
G1 X0.542 Y4.313 F1800.000 E1.00055
G1 X0.513 Y4.348 F7800.000
G1 X0.024 Y4.235 F1800.000 E1.00670
G1 X0.024 Y4.235 F7800.000
G1 X0.001 Y4.208 F1800.000 E1.00713
G1 X0.001 Y4.208 F7800.000
G1 X-0.189 Y4.183 F1800.000 E1.00948
G1 X-0.189 Y4.183 F7800.000
G1 X-0.208 Y4.138 F1800.000 E1.01009
G1 X-1.383 Y4.121 F7800.000
G1 X-1.541 Y4.040 F1800.000 E1.01226
G1 X-1.541 Y4.040 F7800.000
G1 X-1.816 Y3.826 F1800.000 E1.01653
G1 X-1.816 Y3.826 F7800.000
G1 X-1.825 Y3.792 F1800.000 E1.01696
G1 X-1.825 Y3.792 F7800.000
G1 X-1.985 Y3.687 F1800.000 E1.01931
G1 X-1.985 Y3.687 F7800.000
G1 X-1.982 Y3.638 F1800.000 E1.01991
G1 X-3.034 Y3.113 F7800.000
G1 X-3.141 Y2.972 F1800.000 E1.02209
G1 X-3.141 Y2.972 F7800.000
G1 X-3.296 Y2.659 F1800.000 E1.02636
G1 X-3.296 Y2.659 F7800.000
G1 X-3.364 Y2.418 F1800.000 E1.02943
G1 X-4.085 Y1.488 F7800.000
G1 X-4.148 Y1.397 F1800.000 E1.03079
G1 X-4.148 Y1.397 F7800.000
G1 X-4.080 Y0.718 F1800.000 E1.03915
G1 X-4.326 Y-0.431 F7800.000
G1 X-4.353 Y-0.467 F1800.000 E1.03970
G1 X-4.353 Y-0.467 F7800.000
G1 X-4.360 Y-0.497 F1800.000 E1.04008
G1 X-4.360 Y-0.497 F7800.000
G1 X-4.344 Y-0.541 F1800.000 E1.04065
G1 X-4.344 Y-0.541 F7800.000
G1 X-3.988 Y-1.123 F1800.000 E1.04901
G1 X-3.710 Y-2.266 F7800.000
G1 X-3.719 Y-2.310 F1800.000 E1.04956
G1 X-3.719 Y-2.310 F7800.000
G1 X-3.712 Y-2.340 F1800.000 E1.04994
G1 X-3.712 Y-2.340 F7800.000
G1 X-3.679 Y-2.372 F1800.000 E1.05051
G1 X-3.679 Y-2.372 F7800.000
G1 X-3.106 Y-2.742 F1800.000 E1.05887
G1 X-2.360 Y-3.651 F7800.000
G1 X-2.330 Y-3.719 F1800.000 E1.05978
G1 X-2.330 Y-3.719 F7800.000
G1 X-2.286 Y-3.734 F1800.000 E1.06035
G1 X-2.286 Y-3.734 F7800.000
G1 X-1.616 Y-3.825 F1800.000 E1.06862
G1 X-0.542 Y-4.313 F7800.000
G1 X-0.439 Y-4.355 F1800.000 E1.06998
G1 X-0.439 Y-4.355 F7800.000
G1 X-0.206 Y-4.263 F1800.000 E1.07305
G1 X-0.206 Y-4.263 F7800.000
G1 X0.203 Y-4.148 F1800.000 E1.07826
G1 X1.383 Y-4.121 F7800.000
G1 X1.424 Y-4.140 F1800.000 E1.07881
G1 X1.424 Y-4.140 F7800.000
G1 X1.455 Y-4.140 F1800.000 E1.07919
G1 X1.455 Y-4.140 F7800.000
G1 X1.494 Y-4.115 F1800.000 E1.07976
G1 X1.494 Y-4.115 F7800.000
G1 X1.664 Y-3.930 F1800.000 E1.08284
G1 X1.664 Y-3.930 F7800.000
G1 X1.983 Y-3.649 F1800.000 E1.08805
G1 X3.034 Y-3.113 F7800.000
G1 X3.079 Y-3.112 F1800.000 E1.08860
G1 X3.079 Y-3.112 F7800.000
G1 X3.107 Y-3.099 F1800.000 E1.08897
G1 X3.107 Y-3.099 F7800.000
G1 X3.131 Y-3.059 F1800.000 E1.08954
G1 X3.131 Y-3.059 F7800.000
G1 X3.204 Y-2.819 F1800.000 E1.09262
G1 X3.204 Y-2.819 F7800.000
G1 X3.370 Y-2.427 F1800.000 E1.09783
G1 X4.066 Y-1.474 F7800.000
G1 X4.116 Y-1.379 F1800.000 E1.09915
G1 X4.116 Y-1.379 F7800.000
G1 X4.110 Y-1.149 F1800.000 E1.10196
G1 X4.110 Y-1.149 F7800.000
G1 X4.089 Y-0.725 F1800.000 E1.10717
G1 X4.303 Y0.436 F7800.000
G1 X4.134 Y0.919 F1800.000 E1.11344
G1 X4.134 Y0.919 F7800.000
G1 X4.103 Y0.935 F1800.000 E1.11387
G1 X4.103 Y0.935 F7800.000
G1 X4.036 Y1.115 F1800.000 E1.11622
G1 X4.036 Y1.115 F7800.000
G1 X3.999 Y1.121 F1800.000 E1.11669
G1 X3.688 Y2.259 F7800.000
G1 X3.291 Y2.623 F1800.000 E1.12329
G1 X3.291 Y2.623 F7800.000
G1 X3.153 Y2.756 F1800.000 E1.12563
G1 X3.153 Y2.756 F7800.000
G1 X3.116 Y2.745 F1800.000 E1.12610
G1 X2.342 Y3.636 F7800.000
G1 X1.645 Y3.851 F1800.000 E1.13505
G1 X1.645 Y3.851 F7800.000
G1 X1.616 Y3.825 F1800.000 E1.13551
G1 X1.645 Y3.851 F7800.000 E0.13551
G92 E0
G1 Z0.615
M104 S185
G1 X2.514 Y3.756
G1 F1800.000 E1.00000
G1 X5.443 Y3.976 F1260.000 E1.03599
G1 X4.820 Y4.681 E1.04752
G1 X4.165 Y5.276 E1.05835
G1 X0.689 Y4.344 E1.10244
G1 X0.635 Y4.475 E1.10417
