; generated by Slic3r 1.1.7 on 2014-10-10 at 16:02:54

; perimeters extrusion width = 0.35mm
; infill extrusion width = 0.39mm
; solid infill extrusion width = 0.39mm
; top infill extrusion width = 0.39mm
; support material extrusion width = 0.35mm

G21 ; set units to millimeters
M107
M104 S175 ; set temperature
G28 ; home all axes
G1 Z5 F5000 ; lift nozzle

M109 S175 ; wait for temperature to be reached
G90 ; use absolute coordinates
G92 E0
M82 ; use absolute distances for extrusion
G1 F1800.000 E-1.00000
G92 E0
G1 Z0.350 F7800.000
G1 X0.012 Y-17.941 F7800.000
G1 E1.00000 F1800.000
G1 X11.324 Y-17.934 E1.35000 F1080.000
G1 X11.745 Y-17.907 E1.36307 F1080.000
G1 X13.974 Y-17.365 E1.43403
G1 X15.884 Y-16.095 E1.50499
G1 X17.247 Y-14.251 E1.57595
G1 X17.942 Y-11.338 E1.66861
G1 X17.948 Y11.263 E2.36792
G1 X17.246 Y14.231 E2.46230
G1 X17.216 Y14.291 E2.46438
G1 X15.849 Y16.133 E2.53534
G1 X13.936 Y17.398 E2.60630
G1 X11.293 Y17.948 E2.68982
G1 X-10.461 Y17.948 E3.36291
G1 X-11.324 Y17.934 E3.38961
G1 X-11.745 Y17.907 E3.40268
G1 X-13.974 Y17.365 E3.47364
G1 X-15.884 Y16.095 E3.54460
G1 X-17.247 Y14.251 E3.61556
G1 X-17.942 Y11.338 E3.70822
G1 X-17.948 Y-11.263 E4.40753
G1 X-17.246 Y-14.231 E4.50191
G1 X-15.848 Y-16.133 E4.57492
G1 X-13.935 Y-17.398 E4.64588
G1 X-11.293 Y-17.948 E4.72940
G1 X-0.041 Y-17.942 E5.07756
G1 F1800.000 E4.07756
G92 E0
G1 X-11.323 Y-11.263 F7800.000
G1 E1.00000 F1800.000
G1 X-11.293 Y-11.323 E1.00129 F1080.000
G1 X-10.858 Y-11.323 E1.00967
G1 X-11.323 Y-10.395 E1.02966
G1 X-11.323 Y-9.527 E1.04638
G1 X-10.423 Y-11.323 E1.08507
G1 X-9.988 Y-11.323 E1.09345
G1 X-11.323 Y-8.659 E1.15084
G1 X-11.323 Y-7.791 E1.16756
G1 X-9.553 Y-11.323 E1.24365
G1 X-9.118 Y-11.323 E1.25203
G1 X-11.323 Y-6.923 E1.34682
G1 X-11.323 Y-6.055 E1.36354
G1 X-8.682 Y-11.323 E1.47704
G1 X-8.247 Y-11.323 E1.48541
G1 X-11.323 Y-5.187 E1.61761
G1 X-11.323 Y-4.319 E1.63433
G1 X-7.812 Y-11.323 E1.78522
G1 X-7.377 Y-11.323 E1.79360
G1 X-11.323 Y-3.450 E1.96319
G1 X-11.323 Y-2.582 E1.97991
G1 X-6.942 Y-11.323 E2.16821
G1 X-6.507 Y-11.323 E2.17659
G1 X-11.323 Y-1.714 E2.38358
G1 X-11.323 Y-0.846 E2.40030
G1 X-6.072 Y-11.323 E2.62600
G1 X-5.637 Y-11.323 E2.63438
G1 X-11.323 Y0.022 E2.87877
G1 X-11.323 Y0.890 E2.89549
G1 X-5.202 Y-11.323 E3.15859
G1 X-4.767 Y-11.323 E3.16697
G1 X-11.323 Y1.758 E3.44877
G1 X-11.323 Y2.626 E3.46548
G1 X-4.332 Y-11.323 E3.76598
G1 X-3.897 Y-11.323 E3.77436
G1 X-11.323 Y3.494 E4.09356
G1 X-11.323 Y4.362 E4.11028
G1 X-3.462 Y-11.323 E4.44818
G1 X-3.026 Y-11.323 E4.45656
G1 X-11.323 Y5.230 E4.81316
G1 X-11.323 Y6.098 E4.82987
G1 X-2.591 Y-11.323 E5.20517
G1 X-2.156 Y-11.323 E5.21355
G1 X-11.323 Y6.966 E5.60755
G1 X-11.323 Y7.834 E5.62427
G1 X-1.721 Y-11.323 E6.03697
G1 X-1.286 Y-11.323 E6.04535
G1 X-11.323 Y8.702 E6.47675
G1 X-11.323 Y9.571 E6.49347
G1 X-0.851 Y-11.323 E6.94357
G1 X-0.416 Y-11.323 E6.95195
G1 X-11.323 Y10.439 E7.42076
G1 X-11.317 Y11.296 E7.43726
G1 X0.019 Y-11.323 E7.92453
G1 X0.454 Y-11.323 E7.93291
G1 X-10.896 Y11.323 E8.42076
G1 X-10.461 Y11.323 E8.42914
G1 X0.889 Y-11.323 E8.91699
G1 X1.324 Y-11.323 E8.92537
G1 X-10.026 Y11.323 E9.41323
G1 X-9.591 Y11.323 E9.42161
G1 X1.759 Y-11.323 E9.90946
G1 X2.194 Y-11.323 E9.91784
G1 X-9.156 Y11.323 E10.40569
G1 X-8.721 Y11.323 E10.41407
G1 X2.630 Y-11.323 E10.90192
G1 X3.065 Y-11.323 E10.91030
G1 X-8.286 Y11.323 E11.39816
G1 X-7.850 Y11.323 E11.40654
G1 X3.500 Y-11.323 E11.89439
G1 X3.935 Y-11.323 E11.90277
G1 X-7.415 Y11.323 E12.39062
G1 X-6.980 Y11.323 E12.39900
G1 X4.370 Y-11.323 E12.88685
G1 X4.805 Y-11.323 E12.89523
G1 X-6.545 Y11.323 E13.38309
G1 X-6.110 Y11.323 E13.39147
G1 X5.240 Y-11.323 E13.87932
G1 X5.675 Y-11.323 E13.88770
G1 X-5.675 Y11.323 E14.37555
G1 X-5.240 Y11.323 E14.38393
G1 X6.110 Y-11.323 E14.87178
G1 X6.545 Y-11.323 E14.88016
G1 X-4.805 Y11.323 E15.36802
G1 X-4.370 Y11.323 E15.37640
G1 X6.980 Y-11.323 E15.86425
G1 X7.415 Y-11.323 E15.87263
G1 X-3.935 Y11.323 E16.36048
G1 X-3.500 Y11.323 E16.36886
G1 X7.850 Y-11.323 E16.85671
G1 X8.286 Y-11.323 E16.86509
G1 X-3.065 Y11.323 E17.35295
G1 X-2.630 Y11.323 E17.36133
G1 X8.721 Y-11.323 E17.84918
G1 X9.156 Y-11.323 E17.85756
G1 X-2.194 Y11.323 E18.34541
G1 X-1.759 Y11.323 E18.35379
G1 X9.591 Y-11.323 E18.84164
G1 X10.026 Y-11.323 E18.85002
G1 X-1.324 Y11.323 E19.33788
G1 X-0.889 Y11.323 E19.34626
G1 X10.461 Y-11.323 E19.83411
G1 X10.896 Y-11.323 E19.84249
G1 X-0.454 Y11.323 E20.33034
G1 X-0.019 Y11.323 E20.33872
G1 X11.317 Y-11.296 E20.82599
G1 X11.323 Y-10.439 E20.84249
G1 X0.416 Y11.323 E21.31130
G1 X0.851 Y11.323 E21.31967
G1 X11.323 Y-9.571 E21.76978
G1 X11.323 Y-8.702 E21.78649
G1 X1.286 Y11.323 E22.21790
G1 X1.721 Y11.323 E22.22628
G1 X11.323 Y-7.834 E22.63898
G1 X11.323 Y-6.966 E22.65569
G1 X2.156 Y11.323 E23.04970
G1 X2.591 Y11.323 E23.05807
G1 X11.323 Y-6.098 E23.43337
G1 X11.323 Y-5.230 E23.45009
G1 X3.026 Y11.323 E23.80669
G1 X3.462 Y11.323 E23.81507
G1 X11.323 Y-4.362 E24.15297
G1 X11.323 Y-3.494 E24.16969
G1 X3.897 Y11.323 E24.48889
G1 X4.332 Y11.323 E24.49727
G1 X11.323 Y-2.626 E24.79777
G1 X11.323 Y-1.758 E24.81448
G1 X4.767 Y11.323 E25.09628
G1 X5.202 Y11.323 E25.10466
G1 X11.323 Y-0.890 E25.36776
G1 X11.323 Y-0.022 E25.38448
G1 X5.637 Y11.323 E25.62887
G1 X6.072 Y11.323 E25.63725
G1 X11.323 Y0.846 E25.86295
G1 X11.323 Y1.714 E25.87967
G1 X6.507 Y11.323 E26.08666
G1 X6.942 Y11.323 E26.09504
G1 X11.323 Y2.582 E26.28334
G1 X11.323 Y3.450 E26.30005
G1 X7.377 Y11.323 E26.46965
G1 X7.812 Y11.323 E26.47803
G1 X11.323 Y4.319 E26.62892
G1 X11.323 Y5.187 E26.64564
G1 X8.247 Y11.323 E26.77783
G1 X8.682 Y11.323 E26.78621
G1 X11.323 Y6.055 E26.89971
G1 X11.323 Y6.923 E26.91643
G1 X9.118 Y11.323 E27.01122
G1 X9.553 Y11.323 E27.01960
G1 X11.323 Y7.791 E27.09569
G1 X11.323 Y8.659 E27.11241
G1 X9.988 Y11.323 E27.16980
G1 X10.423 Y11.323 E27.17818
G1 X11.323 Y9.527 E27.21687
G1 X11.323 Y10.395 E27.23359
G1 X10.858 Y11.323 E27.25358
G1 X11.293 Y11.323 E27.26196
G1 X11.323 Y11.263 E27.26325
M104 S170 ; set temperature
G1 F1800.000 E26.26325
G92 E0
G1 Z0.875 F7800.000
G1 X-9.125 Y-9.125 F7800.000
G1 E1.00000 F1800.000
G1 X9.125 Y-9.125 E1.31628 F1800.000
G1 X9.125 Y9.125 E1.63255
G1 X-9.125 Y9.125 E1.94883
G1 X-9.125 Y-9.073 E2.26420
G1 X-9.475 Y-9.475 F7800.000
G1 X9.475 Y-9.475 E2.59260 F1800.000
G1 X9.475 Y9.475 E2.92101
G1 X-9.475 Y9.475 E3.24942
G1 X-9.475 Y-9.423 E3.57692
G1 X-9.825 Y-9.825 F7800.000
G1 X9.825 Y-9.825 E3.91745 F1260.000
G1 X9.825 Y9.825 E4.25799
G1 X-9.825 Y9.825 E4.59853
G1 X-9.825 Y-9.773 E4.93816
G1 X-9.522 Y-9.650 F7800.000
G1 X-8.888 Y-8.848 F7800.000
G1 X-8.848 Y-8.888 E4.93918 F3600.000
G1 X-8.327 Y-8.888 E4.94857
G1 X-8.888 Y-8.327 E4.96288
G1 X-8.888 Y-7.805 E4.97228
G1 X-7.805 Y-8.888 E4.99987
G1 X-7.283 Y-8.888 E5.00926
G1 X-8.888 Y-7.283 E5.05014
G1 X-8.888 Y-6.762 E5.05954
G1 X-6.762 Y-8.888 E5.11371
G1 X-6.240 Y-8.888 E5.12310
G1 X-8.888 Y-6.240 E5.19056
G1 X-8.888 Y-5.718 E5.19995
G1 X-5.718 Y-8.888 E5.28069
G1 X-5.197 Y-8.888 E5.29009
G1 X-8.888 Y-5.197 E5.38412
G1 X-8.888 Y-4.675 E5.39351
G1 X-4.675 Y-8.888 E5.50083
G1 X-4.153 Y-8.888 E5.51023
G1 X-8.888 Y-4.153 E5.63083
G1 X-8.888 Y-3.632 E5.64023
G1 X-3.632 Y-8.888 E5.77412
G1 X-3.110 Y-8.888 E5.78351
G1 X-8.888 Y-3.110 E5.93069
G1 X-8.888 Y-2.588 E5.94008
G1 X-2.588 Y-8.888 E6.10055
G1 X-2.067 Y-8.888 E6.10995
G1 X-8.888 Y-2.067 E6.28370
G1 X-8.888 Y-1.545 E6.29309
G1 X-1.545 Y-8.888 E6.48013
G1 X-1.023 Y-8.888 E6.48953
G1 X-8.888 Y-1.023 E6.68985
G1 X-8.888 Y-0.502 E6.69925
G1 X-0.502 Y-8.888 E6.91286
G1 X0.020 Y-8.888 E6.92226
G1 X-8.888 Y0.020 E7.14916
G1 X-8.888 Y0.542 E7.15855
G1 X0.542 Y-8.888 E7.39874
G1 X1.063 Y-8.888 E7.40814
G1 X-8.888 Y1.063 E7.66161
G1 X-8.888 Y1.585 E7.67101
G1 X1.585 Y-8.888 E7.93777
G1 X2.107 Y-8.888 E7.94717
G1 X-8.888 Y2.107 E8.22722
G1 X-8.888 Y2.628 E8.23661
G1 X2.628 Y-8.888 E8.52995
G1 X3.150 Y-8.888 E8.53934
G1 X-8.888 Y3.150 E8.84597
G1 X-8.888 Y3.672 E8.85536
G1 X3.672 Y-8.888 E9.17527
G1 X4.193 Y-8.888 E9.18467
G1 X-8.888 Y4.193 E9.51787
G1 X-8.888 Y4.715 E9.52726
G1 X4.715 Y-8.888 E9.87375
G1 X5.237 Y-8.888 E9.88314
G1 X-8.888 Y5.237 E10.24292
G1 X-8.888 Y5.758 E10.25231
G1 X5.758 Y-8.888 E10.62537
G1 X6.280 Y-8.888 E10.63477
G1 X-8.888 Y6.280 E11.02111
G1 X-8.888 Y6.802 E11.03051
G1 X6.802 Y-8.888 E11.43014
G1 X7.323 Y-8.888 E11.43954
G1 X-8.888 Y7.323 E11.85246
G1 X-8.888 Y7.845 E11.86186
G1 X7.845 Y-8.888 E12.28806
G1 X8.367 Y-8.888 E12.29746
G1 X-8.888 Y8.367 E12.73696
G1 X-8.868 Y8.868 E12.74600
G1 X8.868 Y-8.868 E13.19776
G1 X8.888 Y-8.367 E13.20680
G1 X-8.367 Y8.888 E13.64630
G1 X-7.845 Y8.888 E13.65570
G1 X8.888 Y-7.845 E14.08190
G1 X8.888 Y-7.323 E14.09130
G1 X-7.323 Y8.888 E14.50422
G1 X-6.802 Y8.888 E14.51362
G1 X8.888 Y-6.802 E14.91325
G1 X8.888 Y-6.280 E14.92265
G1 X-6.280 Y8.888 E15.30899
G1 X-5.758 Y8.888 E15.31839
G1 X8.888 Y-5.758 E15.69145
G1 X8.888 Y-5.237 E15.70084
G1 X-5.237 Y8.888 E16.06062
G1 X-4.715 Y8.888 E16.07001
G1 X8.888 Y-4.715 E16.41650
G1 X8.888 Y-4.193 E16.42589
G1 X-4.193 Y8.888 E16.75909
G1 X-3.672 Y8.888 E16.76849
G1 X8.888 Y-3.672 E17.08840
G1 X8.888 Y-3.150 E17.09779
G1 X-3.150 Y8.888 E17.40442
G1 X-2.628 Y8.888 E17.41381
G1 X8.888 Y-2.628 E17.70715
G1 X8.888 Y-2.107 E17.71654
G1 X-2.107 Y8.888 E17.99659
G1 X-1.585 Y8.888 E18.00599
G1 X8.888 Y-1.585 E18.27275
G1 X8.888 Y-1.063 E18.28215
G1 X-1.063 Y8.888 E18.53562
G1 X-0.542 Y8.888 E18.54502
G1 X8.888 Y-0.542 E18.78520
G1 X8.888 Y-0.020 E18.79460
G1 X-0.020 Y8.888 E19.02150
G1 X0.502 Y8.888 E19.03090
G1 X8.888 Y0.502 E19.24451
G1 X8.888 Y1.023 E19.25391
G1 X1.023 Y8.888 E19.45423
G1 X1.545 Y8.888 E19.46363
G1 X8.888 Y1.545 E19.65067
G1 X8.888 Y2.067 E19.66006
G1 X2.067 Y8.888 E19.83381
G1 X2.588 Y8.888 E19.84321
G1 X8.888 Y2.588 E20.00368
G1 X8.888 Y3.110 E20.01307
G1 X3.110 Y8.888 E20.16025
G1 X3.632 Y8.888 E20.16964
G1 X8.888 Y3.632 E20.30353
G1 X8.888 Y4.153 E20.31293
G1 X4.153 Y8.888 E20.43353
G1 X4.675 Y8.888 E20.44293
G1 X8.888 Y4.675 E20.55025
G1 X8.888 Y5.197 E20.55964
G1 X5.197 Y8.888 E20.65367
G1 X5.718 Y8.888 E20.66307
G1 X8.888 Y5.718 E20.74381
G1 X8.888 Y6.240 E20.75320
G1 X6.240 Y8.888 E20.82066
G1 X6.762 Y8.888 E20.83005
G1 X8.888 Y6.762 E20.88422
G1 X8.888 Y7.283 E20.89362
G1 X7.283 Y8.888 E20.93450
G1 X7.805 Y8.888 E20.94389
G1 X8.888 Y7.805 E20.97148
G1 X8.888 Y8.327 E20.98088
G1 X8.327 Y8.888 E20.99519
G1 X8.848 Y8.888 E21.00458
G1 X8.888 Y8.848 E21.00560
M106 S255
G1 F1800.000 E20.00560
G92 E0
G1 Z1.125 F7800.000
G1 X-9.125 Y-9.125 F7800.000
G1 E1.00000 F1800.000
G1 X9.125 Y-9.125 E1.22591 F1375.407
G1 X9.125 Y9.125 E1.45182
G1 X-9.125 Y9.125 E1.67773
G1 X-9.125 Y-9.073 E1.90300
G1 X-9.475 Y-9.475 F7800.000
G1 X9.475 Y-9.475 E2.13757 F1375.407
G1 X9.475 Y9.475 E2.37215
G1 X-9.475 Y9.475 E2.60673
G1 X-9.475 Y-9.423 E2.84065
G1 X-9.825 Y-9.825 F7800.000
G1 X9.825 Y-9.825 E3.08390 F962.785
G1 X9.825 Y9.825 E3.32714
G1 X-9.825 Y9.825 E3.57038
G1 X-9.825 Y-9.773 E3.81297
G1 X-9.522 Y-9.650 F7800.000
G1 X8.843 Y-8.883 F7800.000
G1 X8.883 Y-8.843 E3.81374 F2750.815
G1 X8.883 Y-8.298 E3.82117
G1 X8.298 Y-8.883 E3.83243
G1 X7.753 Y-8.883 E3.83986
G1 X8.883 Y-7.753 E3.86163
G1 X8.883 Y-7.207 E3.86905
G1 X7.207 Y-8.883 E3.90132
G1 X6.662 Y-8.883 E3.90874
G1 X8.883 Y-6.662 E3.95151
G1 X8.883 Y-6.116 E3.95893
G1 X6.116 Y-8.883 E4.01220
G1 X5.571 Y-8.883 E4.01962
G1 X8.883 Y-5.571 E4.08339
G1 X8.883 Y-5.025 E4.09081
G1 X5.025 Y-8.883 E4.16508
G1 X4.480 Y-8.883 E4.17250
G1 X8.883 Y-4.480 E4.25727
G1 X8.883 Y-3.934 E4.26469
G1 X3.934 Y-8.883 E4.35995
G1 X3.389 Y-8.883 E4.36738
G1 X8.883 Y-3.389 E4.47314
G1 X8.883 Y-2.844 E4.48056
G1 X2.844 Y-8.883 E4.59682
G1 X2.298 Y-8.883 E4.60425
G1 X8.883 Y-2.298 E4.73101
G1 X8.883 Y-1.753 E4.73843
G1 X1.753 Y-8.883 E4.87569
G1 X1.207 Y-8.883 E4.88312
G1 X8.883 Y-1.207 E5.03088
G1 X8.883 Y-0.662 E5.03830
G1 X0.662 Y-8.883 E5.19656
G1 X0.116 Y-8.883 E5.20398
G1 X8.883 Y-0.116 E5.37274
G1 X8.883 Y0.429 E5.38016
G1 X-0.429 Y-8.883 E5.55942
G1 X-0.975 Y-8.883 E5.56684
G1 X8.883 Y0.975 E5.75660
G1 X8.883 Y1.520 E5.76403
G1 X-1.520 Y-8.883 E5.96428
G1 X-2.065 Y-8.883 E5.97170
G1 X8.883 Y2.065 E6.18246
G1 X8.883 Y2.611 E6.18988
G1 X-2.611 Y-8.883 E6.41114
G1 X-3.156 Y-8.883 E6.41856
G1 X8.883 Y3.156 E6.65031
G1 X8.883 Y3.702 E6.65774
G1 X-3.702 Y-8.883 E6.89999
G1 X-4.247 Y-8.883 E6.90741
G1 X8.883 Y4.247 E7.16016
G1 X8.883 Y4.793 E7.16759
G1 X-4.793 Y-8.883 E7.43084
G1 X-5.338 Y-8.883 E7.43826
G1 X8.883 Y5.338 E7.71201
G1 X8.883 Y5.884 E7.71944
G1 X-5.884 Y-8.883 E8.00369
G1 X-6.429 Y-8.883 E8.01111
G1 X8.883 Y6.429 E8.30586
G1 X8.883 Y6.974 E8.31328
G1 X-6.974 Y-8.883 E8.61853
G1 X-7.520 Y-8.883 E8.62595
G1 X8.883 Y7.520 E8.94170
G1 X8.883 Y8.065 E8.94912
G1 X-8.065 Y-8.883 E9.27537
G1 X-8.611 Y-8.883 E9.28279
G1 X8.883 Y8.611 E9.61954
G1 X8.611 Y8.883 E9.62479
G1 X-8.883 Y-8.611 E9.96153
G1 X-8.883 Y-8.065 E9.96896
G1 X8.065 Y8.883 E10.29520
G1 X7.520 Y8.883 E10.30263
G1 X-8.883 Y-7.520 E10.61838
G1 X-8.883 Y-6.974 E10.62580
G1 X6.974 Y8.883 E10.93105
G1 X6.429 Y8.883 E10.93847
G1 X-8.883 Y-6.429 E11.23322
G1 X-8.883 Y-5.884 E11.24064
G1 X5.884 Y8.883 E11.52489
G1 X5.338 Y8.883 E11.53232
G1 X-8.883 Y-5.338 E11.80607
G1 X-8.883 Y-4.793 E11.81349
G1 X4.793 Y8.883 E12.07674
G1 X4.247 Y8.883 E12.08416
G1 X-8.883 Y-4.247 E12.33692
G1 X-8.883 Y-3.702 E12.34434
G1 X3.702 Y8.883 E12.58659
G1 X3.156 Y8.883 E12.59402
G1 X-8.883 Y-3.156 E12.82577
G1 X-8.883 Y-2.611 E12.83319
G1 X2.611 Y8.883 E13.05445
G1 X2.065 Y8.883 E13.06187
G1 X-8.883 Y-2.065 E13.27263
G1 X-8.883 Y-1.520 E13.28005
G1 X1.520 Y8.883 E13.48030
G1 X0.975 Y8.883 E13.48773
G1 X-8.883 Y-0.975 E13.67748
G1 X-8.883 Y-0.429 E13.68491
G1 X0.429 Y8.883 E13.86417
G1 X-0.116 Y8.883 E13.87159
G1 X-8.883 Y0.116 E14.04035
G1 X-8.883 Y0.662 E14.04777
G1 X-0.662 Y8.883 E14.20603
G1 X-1.207 Y8.883 E14.21345
G1 X-8.883 Y1.207 E14.36121
G1 X-8.883 Y1.753 E14.36864
G1 X-1.753 Y8.883 E14.50590
G1 X-2.298 Y8.883 E14.51332
G1 X-8.883 Y2.298 E14.64008
G1 X-8.883 Y2.844 E14.64750
G1 X-2.844 Y8.883 E14.76377
G1 X-3.389 Y8.883 E14.77119
G1 X-8.883 Y3.389 E14.87695
G1 X-8.883 Y3.934 E14.88438
G1 X-3.934 Y8.883 E14.97964
G1 X-4.480 Y8.883 E14.98706
G1 X-8.883 Y4.480 E15.07183
G1 X-8.883 Y5.025 E15.07925
G1 X-5.025 Y8.883 E15.15352
G1 X-5.571 Y8.883 E15.16094
G1 X-8.883 Y5.571 E15.22471
G1 X-8.883 Y6.116 E15.23213
G1 X-6.116 Y8.883 E15.28540
G1 X-6.662 Y8.883 E15.29282
G1 X-8.883 Y6.662 E15.33559
G1 X-8.883 Y7.207 E15.34301
G1 X-7.207 Y8.883 E15.37528
G1 X-7.753 Y8.883 E15.38270
G1 X-8.883 Y7.753 E15.40447
G1 X-8.883 Y8.298 E15.41189
G1 X-8.298 Y8.883 E15.42316
G1 X-8.843 Y8.883 E15.43059
G1 X-8.883 Y8.843 E15.43136
G1 F1800.000 E14.43136
G92 E0
G1 Z1.375 F7800.000
G1 X-9.125 Y-9.125 F7800.000
G1 E1.00000 F1800.000
G1 X9.125 Y-9.125 E1.22591 F1375.407
G1 X9.125 Y9.125 E1.45182
G1 X-9.125 Y9.125 E1.67773
G1 X-9.125 Y-9.073 E1.90300
G1 X-9.475 Y-9.475 F7800.000
G1 X9.475 Y-9.475 E2.13757 F1375.407
G1 X9.475 Y9.475 E2.37215
G1 X-9.475 Y9.475 E2.60673
G1 X-9.475 Y-9.423 E2.84065
G1 X-9.825 Y-9.825 F7800.000
G1 X9.825 Y-9.825 E3.08390 F962.785
G1 X9.825 Y9.825 E3.32714
G1 X-9.825 Y9.825 E3.57038
G1 X-9.825 Y-9.773 E3.81297
G1 X-9.522 Y-9.650 F7800.000
G1 X-8.843 Y-8.883 F7800.000
G1 X-8.883 Y-8.843 E3.81374 F2750.815
G1 X-8.883 Y-8.298 E3.82117
G1 X-8.298 Y-8.883 E3.83243
G1 X-7.753 Y-8.883 E3.83986
G1 X-8.883 Y-7.753 E3.86163
G1 X-8.883 Y-7.207 E3.86905
G1 X-7.207 Y-8.883 E3.90132
G1 X-6.662 Y-8.883 E3.90874
G1 X-8.883 Y-6.662 E3.95151
G1 X-8.883 Y-6.116 E3.95893
G1 X-6.116 Y-8.883 E4.01220
G1 X-5.571 Y-8.883 E4.01962
G1 X-8.883 Y-5.571 E4.08339
G1 X-8.883 Y-5.025 E4.09081
G1 X-5.025 Y-8.883 E4.16508
G1 X-4.480 Y-8.883 E4.17250
G1 X-8.883 Y-4.480 E4.25727
G1 X-8.883 Y-3.934 E4.26469
G1 X-3.934 Y-8.883 E4.35995
G1 X-3.389 Y-8.883 E4.36738
G1 X-8.883 Y-3.389 E4.47314
G1 X-8.883 Y-2.844 E4.48056
G1 X-2.844 Y-8.883 E4.59682
G1 X-2.298 Y-8.883 E4.60425
G1 X-8.883 Y-2.298 E4.73101
G1 X-8.883 Y-1.753 E4.73843
G1 X-1.753 Y-8.883 E4.87569
G1 X-1.207 Y-8.883 E4.88312
G1 X-8.883 Y-1.207 E5.03088
G1 X-8.883 Y-0.662 E5.03830
G1 X-0.662 Y-8.883 E5.19656
G1 X-0.116 Y-8.883 E5.20398
